proprietary/assets/icons/vervoersmiddelen/auto-met-3-personen.svg

<svg height="64" viewBox="0 0 64 64" width="64" xmlns="http://www.w3.org/2000/svg"><path d="m0 0h64v64h-64z" fill="none"/><path d="m54.4971 26.4243c1.1865-.8149 1.9316-1.7895 2.1422-2.2724.4413-1.0103.1512-2.754-1.5357-3.0806-.7466-.145-2.1601-.0088-3.4088.168-.9667-3.4854-2.6498-9.1514-3.6323-10.1768-1.3179-1.3755-5.9375-2.0625-16.0625-2.0625s-14.7446.687-16.0625 2.0625c-.9824 1.0254-2.6655 6.6914-3.6323 10.1768-1.2486-.1768-2.6621-.313-3.4087-.168-1.687.3266-1.9771 2.0703-1.5357 3.0806.2105.4829.9556 1.4575 2.1421 2.2724-1.935 2.604-2.5029 4.8672-2.5029 9.0757v11.5s0 3.3647.4702 5.6045c.1714.8154.9273 1.3955 1.7979 1.3955h6.4638c.8712 0 1.6265-.5801 1.7979-1.3955.2622-1.2505.3784-2.8501.4297-4.0205l-6.1297-1.2199c-.3172-.1018-.2708-.3079-.2499-.3641h20.4201 20.4201c.0209.0562.0673.2623-.2499.3641l-6.1297 1.2199c.0513 1.1704.1675 2.77.4297 4.0205.1714.8154.9268 1.3955 1.7979 1.3955h6.4638c.8712 0 1.6265-.5801 1.7979-1.3955.4702-2.2398.4702-5.6045.4702-5.6045s0-6.0625 0-11.5c0-4.2085-.5679-6.4717-2.5029-9.0757zm-35.6016-12.6831c.5869-.2921 4.8955-.791 13.1045-.791s12.5176.499 13.1045.791c.5815.9872 2.4375 7.3906 2.9673 9.9756-2.9219.812-9.5742 1.3633-16.0718 1.3633s-13.1499-.5513-16.0718-1.3633c.5298-2.585 2.3858-8.9883 2.9673-9.9756zm1.5879 25.979-5.8882-.4707c-1.5952-.1274-2.5727-1.4004-2.8652-2.7964l-.2427-1.6865c-.1499-1.043.9214-1.9282 1.9775-1.6343l4.7662 1.3242c1.0366.399 1.8198 1.209 2.1537 2.2256l.6533 2.4263c.087.3218-.203.6411-.5546.6118zm17.5166 4.2798h-12v-3h12zm14.5127-9.2334-.2427 1.6865c-.2925 1.396-1.27 2.669-2.8652 2.7964l-5.8882.4707c-.3516.0293-.6416-.29-.5547-.6118l.6533-2.4263c.334-1.0166 1.1172-1.8266 2.1534-2.2256l4.7666-1.3242c1.0561-.2939 2.1274.5913 1.9775 1.6343z"/><path d="m22.9216 15.3373c-2.1283.0009-3.2742 1.512-3.2733 3.6621.0007 2.2661 1.2018 3.5437 3.276 3.543 2.0746-.0008 3.2745-1.4537 3.2737-3.5457-.0008-2.3826-1.256-3.6598-3.2764-3.6594z"/><path d="m34.9544 18.3013c-.0006-2.1495-1.1329-3.3018-2.9557-3.3013-1.92.0008-2.9539 1.364-2.953 3.3037.0007 2.0443 1.0843 3.1969 2.9554 3.1963 1.8716-.0007 2.954-1.3115 2.9533-3.1987z"/><path d="m41.0781 22.5425c2.0746-.0008 3.2745-1.4537 3.2736-3.5457-.0007-2.3826-1.2559-3.6599-3.2763-3.6594-2.1283.0009-3.2743 1.512-3.2734 3.6621.0008 2.2661 1.202 3.5437 3.2761 3.543z"/></svg>

<?xml version="1.0" encoding="utf-8"?>
<!-- Generator: Adobe Illustrator 17.1.0, SVG Export Plug-In . SVG Version: 6.00 Build 0)  -->
<svg version="1.2" baseProfile="tiny" xmlns="http://www.w3.org/2000/svg" xmlns:xlink="http://www.w3.org/1999/xlink" x="0px"
	 y="0px" width="64px" height="64px" viewBox="0 0 64 64" xml:space="preserve">
<g id="Box">
	<rect fill="none" width="64" height="64"/>
</g>
<g id="Icon">
	<g>
		<path d="M54.4971,26.4243c1.1865-0.8149,1.9316-1.7895,2.1422-2.2724c0.4413-1.0103,0.1512-2.754-1.5357-3.0806
			c-0.7466-0.145-2.1601-0.0088-3.4088,0.168c-0.9667-3.4854-2.6498-9.1514-3.6323-10.1768C46.7446,9.687,42.125,9,32,9
			s-14.7446,0.687-16.0625,2.0625c-0.9824,1.0254-2.6655,6.6914-3.6323,10.1768c-1.2486-0.1768-2.6621-0.313-3.4087-0.168
			c-1.687,0.3266-1.9771,2.0703-1.5357,3.0806c0.2105,0.4829,0.9556,1.4575,2.1421,2.2724C7.5679,29.0283,7,31.2915,7,35.5
			C7,40.9375,7,47,7,47s0,3.3647,0.4702,5.6045C7.6416,53.4199,8.3975,54,9.2681,54h6.4638c0.8712,0,1.6265-0.5801,1.7979-1.3955
			c0.2622-1.2505,0.3784-2.8501,0.4297-4.0205l-6.1297-1.2199C11.5126,47.2623,11.559,47.0562,11.5799,47H32h20.4201
			c0.0209,0.0562,0.0673,0.2623-0.2499,0.3641l-6.1297,1.2199c0.0513,1.1704,0.1675,2.77,0.4297,4.0205
			C46.6416,53.4199,47.397,54,48.2681,54h6.4638c0.8712,0,1.6265-0.5801,1.7979-1.3955C57,50.3647,57,47,57,47s0-6.0625,0-11.5
			C57,31.2915,56.4321,29.0283,54.4971,26.4243z M18.8955,13.7412c0.5869-0.2921,4.8955-0.791,13.1045-0.791
			s12.5176,0.499,13.1045,0.791c0.5815,0.9872,2.4375,7.3906,2.9673,9.9756c-2.9219,0.812-9.5742,1.3633-16.0718,1.3633
			s-13.1499-0.5513-16.0718-1.3633C16.458,21.1318,18.314,14.7285,18.8955,13.7412z M20.4834,39.7202l-5.8882-0.4707
			C13,39.1221,12.0225,37.8491,11.73,36.4531l-0.2427-1.6865c-0.1499-1.043,0.9214-1.9282,1.9775-1.6343l4.7662,1.3242
			c1.0366,0.399,1.8198,1.209,2.1537,2.2256l0.6533,2.4263C21.125,39.4302,20.835,39.7495,20.4834,39.7202z M38,44H26v-3h12V44z
			 M52.5127,34.7666L52.27,36.4531c-0.2925,1.396-1.27,2.669-2.8652,2.7964l-5.8882,0.4707
			c-0.3516,0.0293-0.6416-0.29-0.5547-0.6118l0.6533-2.4263c0.334-1.0166,1.1172-1.8266,2.1534-2.2256l4.7666-1.3242
			C51.5913,32.8384,52.6626,33.7236,52.5127,34.7666z"/>
		<path d="M22.9216,15.3373c-2.1283,0.0009-3.2742,1.512-3.2733,3.6621c0.0007,2.2661,1.2018,3.5437,3.276,3.543
			c2.0746-0.0008,3.2745-1.4537,3.2737-3.5457C26.1972,16.6141,24.942,15.3369,22.9216,15.3373z"/>
		<path d="M34.9544,18.3013c-0.0006-2.1495-1.1329-3.3018-2.9557-3.3013c-1.92,0.0008-2.9539,1.364-2.953,3.3037
			c0.0007,2.0443,1.0843,3.1969,2.9554,3.1963C33.8727,21.4993,34.9551,20.1885,34.9544,18.3013z"/>
		<path d="M41.0781,22.5425c2.0746-0.0008,3.2745-1.4537,3.2736-3.5457c-0.0007-2.3826-1.2559-3.6599-3.2763-3.6594
			c-2.1283,0.0009-3.2743,1.512-3.2734,3.6621C37.8028,21.2656,39.004,22.5432,41.0781,22.5425z"/>
	</g>
</g>
</svg>
